X: 13182
T: Wap at the Widow my Laddie
%R: jig, waltz
B: James Oswald "The Caledonian Pocket Companion" v.1 b.3 p.18 #2
S: https://ia800501.us.archive.org/18/items/caledonianpocket01rugg/caledonianpocket01rugg_bw.pdf
Z: 2020 John Chambers <jc:trillian.mit.edu>
M: 6/8
L: 1/16
K: G
"_Mod.ly Quick"d2 |\
TB3AB2 (GAB2)G2 | A2D2Bc A4G2 | TB3AB2 (GAB2)G2 | TB3AB2 g3bag |\
Tf3ed2 (Bcd2)e2 | d2B2g2 TA4G2 | g2(agfe) d2g2G2 | TB6 d4 :|
|: (ef) |\
g3ab2 a2b2g2 | a2d2b2 Ta4(gf) | g3ab2 a2b2g2 | Tf3ed2 B2g2a2 |\
Tf3ed2 e2d2B2 | g2d2B2 A2a2f2 | (gfef)g2 d2g2G2 | TB6 d4 :|
|: D2 |\
G2(BcdB) G2(BcdB) | c2A2a2 Tf4A2 | G2(BcdB) G2(BcdB) | G2(BcdB) g2d2=f2 |\
e2(cdec) d2(BcdB) | c2(ABcA) a2(fgaf) |
(gfefg)e (dcBABG) | TB6 d4 :: (ef) |\
(gfedcB) g2G2b2 | a2A2a2 a2(bagf) | g2G2b2 a(gaba)g |
Tf3ed2 g2G2g2 |\
(fgfefd) (efg2)B2 | g2B2G2 A2(fgaf) | (gfga)b2 d2g2G2 | TB6 d4 :: d2 |\
(Bcd2)B2 (GAB2)G2 | A2D2g2 Tf4d2 |
(Bcd2)B2 (GAB2)G2 | TB3AB2 g4(ag) |\
(fgfe)d2 (efg2)B2 | Te3dB2 A2(fgaf) | (gab2)d2 (efg2)G2 |TB6 d4 :: (ef) |\
g2d2B2 g2(agfe) |
a2c2A2 a2(bagf) | g(fga)b2 a2b2g2 | Tf3ed2 g2G2g2 |\
e2c2e2 d2g2b2 | (dcBA)G2 A2f2a2 | g2b2d2 e2g2G2 | TB6 d4 :|


